src/assets/desktop/6.svg

<svg width="74" height="75" viewBox="0 0 74 75" fill="none" xmlns="http://www.w3.org/2000/svg">
<circle cx="37" cy="37.0862" r="37" fill="#090C21"/>
<path d="M24.1041 43.6961H21.8776V39.1473H17.4724V36.9208H21.8776V32.3719H24.1041V36.9208H28.5093V39.1473H24.1041V43.6961ZM36.4731 46.186C33.3847 46.186 31.3497 44.1271 31.0385 41.6611H33.7199C33.9114 43.0258 34.7254 44.0313 36.497 44.0313C39.5615 44.0313 40.3755 41.1584 40.3755 38.3094V38.0699L40.3037 38.046C39.4418 39.4346 37.9096 40.2247 36.0422 40.2247C32.834 40.2247 30.6075 37.9742 30.6075 34.7182C30.6075 31.5101 32.834 28.9723 36.521 28.9723C41.2613 28.9723 42.9612 32.4917 42.9612 37.5432C42.9612 42.9779 40.591 46.186 36.4731 46.186ZM36.4252 38.046C38.6757 38.046 40.0882 36.6095 40.0882 34.5267C40.0882 32.5156 38.8433 31.127 36.5689 31.127C34.4142 31.127 33.241 32.4917 33.241 34.5745C33.241 36.7532 34.5099 38.046 36.4252 38.046ZM51.0434 46.186C47.0931 46.186 44.9384 43.7919 44.8426 41.0147H47.4761C47.6437 42.523 48.5056 43.9595 50.8997 43.9595C53.0065 43.9595 54.3951 42.6667 54.3951 40.2007C54.3951 37.8784 53.1263 36.825 51.0673 36.825C49.7266 36.825 48.5056 37.2799 47.7155 38.3094H45.0581L46.8297 29.3075H56.2386V31.534H48.8168L47.9071 36.1068V36.1547C48.769 35.2688 49.99 34.7182 51.7616 34.7182C54.8979 34.7182 57.0765 37.0405 57.0765 40.2007C57.0765 43.8637 54.443 46.186 51.0434 46.186Z" fill="white"/>
</svg>

<svg xmlns="http://www.w3.org/2000/svg" width="74" height="75" fill="none"><circle cx="37" cy="37.086" r="37" fill="#090C21"/><path fill="#fff" d="M24.104 43.696h-2.226v-4.549h-4.406v-2.226h4.406v-4.55h2.226v4.55h4.405v2.226h-4.405zm12.37 2.49c-3.09 0-5.124-2.059-5.435-4.525h2.68c.192 1.365 1.006 2.37 2.778 2.37 3.065 0 3.879-2.873 3.879-5.722v-.24l-.072-.023c-.862 1.389-2.394 2.179-4.262 2.179-3.208 0-5.434-2.25-5.434-5.507 0-3.208 2.226-5.746 5.913-5.746 4.74 0 6.44 3.52 6.44 8.571 0 5.435-2.37 8.643-6.488 8.643m-.049-8.14c2.25 0 3.663-1.437 3.663-3.52 0-2.01-1.245-3.399-3.52-3.399-2.154 0-3.327 1.365-3.327 3.448 0 2.178 1.269 3.471 3.184 3.471m14.618 8.14c-3.95 0-6.105-2.394-6.2-5.171h2.633c.168 1.508 1.03 2.944 3.424 2.944 2.107 0 3.495-1.292 3.495-3.758 0-2.323-1.269-3.376-3.328-3.376-1.34 0-2.561.455-3.352 1.484h-2.657l1.772-9.001h9.409v2.226h-7.422l-.91 4.573v.048c.862-.886 2.083-1.437 3.855-1.437 3.136 0 5.315 2.322 5.315 5.483 0 3.663-2.634 5.985-6.034 5.985"/></svg>
